X:1
T:Title
%%score 1 { 2 | 3 }
L:1/8
Q:1/4=100
M:3/4
K:F
V:1 treble nm="Grand Piano, Soprano"
V:2 treble nm="Choir Pad, Bass"
V:3 bass 
V:1
 F [FA]3 [FA]2 | [EG][FA] [Fc]4 | [Fc]/[Fc]/ [Fd]2 [Fd] [Ec]2 | [EB][FA]- [FA]3- [FA]/ z/ | %4
w: By~George~Blackburn~Holsinger * *||||
 [FA]/[FA]/ [FB]3 [Fd]2 | [FB][FA] [Fc]4 | [Fc]/[Fc]/ [Fc]2 [Fd] [Ec]2 | %7
w: |||
 [F=B][Ec]- [Ec]3- [Ec]/ z/ | [Fc]/[Fc]/ [Af]3 [_Ad]2 | [_A=B][=Ac] [FA]4 | %10
w: |||
 [FA]/[FA]/ [EG]2 [Ed] [Ec]2 | [EB][FA]- [FA]3- [FA]/ z/ | [FA] [FB]3 [Fd]2 | [FB][FA] [Fc]4 | %14
w: ||||
 F/[FG]/ [FA]3 [EA]2 | [EG]F- F3- F/ z/ | z [EG]3 [EG]2 | [FA][GB]- [GB]4- | [GB] [FA]3 [FA]2 | %19
w: |||||
 [GB][Ac]- [Ac]3- [Ac]/ z/ | [Fc] [Fd]3 [Ff]2 | [Fd][Fc] [FA]4 | F/[FG]/ [FA]3 [EA]2 | [EG]F- F4- | %24
w: |||||
 F2 z2 z2 |] %25
w: |
V:2
 A, C3 C2 | CC[K:bass] A,4 | A,/A,/ B,2 B, G,2 | CC- C3- C/ z/ | C/C/ D3 B,2 | DC[K:bass] A,4 | %6
 A,/A,/ A,2 A, G,2 | G,G,- G,3- G,/ z/ | A,/A,/[K:treble] C3 =B,2 | DF C4 | C/C/ C2 B, G,2 | %11
 CC- C3- C/ z/ | C D3 B,2 | DC A,4 | C/D/ C3[K:bass] C2 | B,A,- A,3- A,/ z/ | z6 | %17
 z[K:treble] C CC C2- | C2 z2 z2 | z C CC C2 | A,[K:bass] B,3 D2 | B,A, C4 | C/D/ C3 C2 | %23
 B,[K:bass]A,- A,4- | A,2 z2 z2 |] %25
V:3
 F, F,3 F,2 | C,F, F,4 | F,/F,/ B,,2 B,, C,2 | C,F,- F,3- F,/ z/ | F,/F,/ B,,3 B,,2 | B,,F, F,4 | %6
 F,/F,/ F,2 D, z2 | z C,- C,3- C,/ z/ | F,/F,/ F,3 F,2 | F,F, F,4 | F,/F,/ C,2 C, C,2 | %11
 C,F,- F,3- F,/ z/ | F, B,,3 B,,2 | B,,F, F,4 | A,,/B,,/ C,3 C,2 | C,F,- F,3- F,/ z/ | z6 | %17
 z C, C,C, C,2- | C,2 z2 z2 | z F, F,F, F,2 | F, B,,3 B,,2 | B,,F, F,4 | A,,/=B,,/ C,3 C,2 | %23
 C,F,- F,4- | F,2 z2 z2 |] %25

